app/assets/images/ruby-on-rails-logo.svg

<svg fill="none" height="70" viewBox="0 0 184 70" width="184" xmlns="http://www.w3.org/2000/svg"><g fill="#808080"><path clip-rule="evenodd" d="m157.854 58.1679v8.13h14.64c2.999 0 8.148-2.2009 8.327-8.3546v-3.1442c0-5.2553-4.298-8.3546-8.327-8.3546h-7.298v-3.773h14.461v-8.1749h-13.879c-3.581 0-8.371 2.9645-8.371 8.4893v2.8298c0 5.5248 4.745 8.3546 8.371 8.3546 10.073.0449-2.417 0 6.895 0v3.9527zm-78.4347-1.9763s7.8345-.6738 7.8345-10.8251-9.491-11.0945-9.491-11.0945h-17.1017v32.0259h8.5957v-7.7257l7.4316 7.7257h12.7143zm-3.3129-6.5579h-6.8496v-7.3216h6.8944s1.925.7187 1.925 3.6383c0 2.9197-1.9698 3.6833-1.9698 3.6833zm32.3676-15.1371h-8.7297c-6.2228 0-8.327 5.6595-8.327 8.3546v23.4467h8.7297v-5.6146h8.193v5.6146h8.461v-23.4467c0-6.8275-6.178-8.3546-8.327-8.3546zm-.134 17.1134h-8.237v-7.7707s-.001-1.7517 2.73-1.7517h3c2.417 0 2.462 1.7517 2.462 1.7517v7.7707z" fill-rule="evenodd"/><path d="m129.874 34.4966h-9.088v31.8014h9.088z"/><g clip-rule="evenodd" fill-rule="evenodd"><path d="m142.633 58.0781v-23.5815h-9.043v23.5815 8.2199h9.043 12.222v-8.2199z"/><path d="m6.71484 66.2977h35.36736s-6.7601-30.9479 15.6244-43.4798c4.8798-2.3806 20.4146-11.2742 45.8434 7.591.806-.6738 1.567-1.2128 1.567-1.2128s-23.28-23.31201-49.2012-20.70682c-13.0277 1.16785-29.055 13.07092-38.4564 28.79192-9.40149 15.721-10.74456 29.0165-10.74456 29.0165z"/><path d="m6.71484 66.2977h35.36736s-6.7601-30.9479 15.6244-43.4798c4.8798-2.3806 20.4146-11.2742 45.8434 7.591.806-.6738 1.567-1.2128 1.567-1.2128s-23.28-23.31201-49.2012-20.70682c-13.0277 1.16785-29.055 13.07092-38.4564 28.79192-9.40149 15.721-10.74456 29.0165-10.74456 29.0165z"/><path d="m6.71484 66.2979h35.36736s-6.7601-30.9479 15.6244-43.4798c4.8798-2.3806 20.4146-11.2742 45.8434 7.591.806-.6737 1.567-1.2128 1.567-1.2128s-23.28-23.31197-49.2012-20.70677c-13.0725 1.16785-29.0997 13.07087-38.5012 28.79187-9.40146 15.721-10.69976 29.0165-10.69976 29.0165zm73.68956-55.293.1791-3.00946c-.403-.22458-1.5222-.76359-4.3426-1.5721l-.1791 2.96453c1.4774.49409 2.91 1.03313 4.3426 1.61703z"/><path d="m76.1514 20.5271-.1791 2.8297c1.4774.045 2.9547.2246 4.4321.539l.1791-2.7848c-1.5222-.3144-2.9995-.4941-4.4321-.5839zm-16.5645-14.0142h.4477l-.8954-2.73995c-1.3878 0-2.8204.08983-4.2978.2695l.8506 2.65012c1.2983-.13476 2.5966-.17967 3.8949-.17967zm2.1489 16.5295 1.0297 3.0993c1.2983-.6288 2.5966-1.1678 3.8949-1.5721l-.9849-2.9645c-1.5222.4491-2.8205.9432-3.9397 1.4373zm-20.3251-11.8132-2.0146-3.09928c-1.1192.58392-2.2832 1.21276-3.4919 1.93148l2.0593 3.1442c1.164-.7187 2.2832-1.3925 3.4472-1.9764zm9.1776 20.2127 2.149 3.2341c.761-1.123 1.6564-2.1561 2.6413-3.1892l-2.0146-3.0543c-1.0297.9432-1.9698 1.9763-2.7757 3.0094zm-6.4914 14.4634 3.6262 2.8747c.1791-1.7518.4925-3.5036.9402-5.2554l-3.2234-2.5602c-.582 1.6619-.9849 3.3238-1.343 4.9409zm-19.6088-21.3357-3.1786-2.7849c-1.164 1.123-2.2832 2.2459-3.3129 3.3688l3.4472 2.9646c.9402-1.2128 1.9699-2.4256 3.0443-3.5485zm-13.5202 20.078-5.1484-1.8865c-.85061 1.9314-1.79076 4.1773-2.23845 5.39l5.14842 1.8865c.582-1.5271 1.52213-3.7281 2.23843-5.39zm32.4574 12.6666c.0896 2.3806.3134 4.3121.5373 5.6596l5.3722 1.9314c-.4029-1.7517-.8058-3.7281-1.0744-5.8392z"/></g></g></svg>

<svg width="184" height="70" viewBox="0 0 184 70" fill="none" xmlns="http://www.w3.org/2000/svg">
<path fill-rule="evenodd" clip-rule="evenodd" d="M157.854 58.1679V66.2979H172.494C175.493 66.2979 180.642 64.097 180.821 57.9433V54.7991C180.821 49.5438 176.523 46.4445 172.494 46.4445H165.196V42.6715H179.657V34.4966H165.778C162.197 34.4966 157.407 37.4611 157.407 42.9859V45.8157C157.407 51.3405 162.152 54.1703 165.778 54.1703C175.851 54.2152 163.361 54.1703 172.673 54.1703V58.123L157.854 58.1679ZM79.4193 56.1916C79.4193 56.1916 87.2538 55.5178 87.2538 45.3665C87.2538 35.2152 77.7628 34.272 77.7628 34.272H60.6611V66.2979H69.2568V58.5722L76.6884 66.2979H89.4027L79.4193 56.1916ZM76.1064 49.6337H69.2568V42.3121H76.1512C76.1512 42.3121 78.0762 43.0308 78.0762 45.9504C78.0762 48.8701 76.1064 49.6337 76.1064 49.6337ZM108.474 34.4966H99.7443C93.5215 34.4966 91.4173 40.1561 91.4173 42.8512V66.2979H100.147V60.6833H108.34V66.2979H116.801V42.8512C116.801 36.0237 110.623 34.4966 108.474 34.4966ZM108.34 51.61H100.103V43.8393C100.103 43.8393 100.102 42.0876 102.833 42.0876H105.833C108.25 42.0876 108.295 43.8393 108.295 43.8393V51.61H108.34Z" fill="#808080"/>
<path d="M129.874 34.4966H120.786V66.298H129.874V34.4966Z" fill="#808080"/>
<path fill-rule="evenodd" clip-rule="evenodd" d="M142.633 58.0781V34.4966H133.59V58.0781V66.298H142.633H154.855V58.0781H142.633Z" fill="#808080"/>
<path fill-rule="evenodd" clip-rule="evenodd" d="M6.71484 66.2977H42.0822C42.0822 66.2977 35.3221 35.3498 57.7066 22.8179C62.5864 20.4373 78.1212 11.5437 103.55 30.4089C104.356 29.7351 105.117 29.1961 105.117 29.1961C105.117 29.1961 81.837 5.88409 55.9158 8.48928C42.8881 9.65713 26.8608 21.5602 17.4594 37.2812C8.05791 53.0022 6.71484 66.2977 6.71484 66.2977Z" fill="#808080"/>
<path fill-rule="evenodd" clip-rule="evenodd" d="M6.71484 66.2977H42.0822C42.0822 66.2977 35.3221 35.3498 57.7066 22.8179C62.5864 20.4373 78.1212 11.5437 103.55 30.4089C104.356 29.7351 105.117 29.1961 105.117 29.1961C105.117 29.1961 81.837 5.88409 55.9158 8.48928C42.8881 9.65713 26.8608 21.5602 17.4594 37.2812C8.05791 53.0022 6.71484 66.2977 6.71484 66.2977Z" fill="#808080"/>
<path fill-rule="evenodd" clip-rule="evenodd" d="M6.71484 66.2979H42.0822C42.0822 66.2979 35.3221 35.35 57.7066 22.8181C62.5864 20.4375 78.1212 11.5439 103.55 30.4091C104.356 29.7354 105.117 29.1963 105.117 29.1963C105.117 29.1963 81.837 5.88433 55.9158 8.48953C42.8433 9.65738 26.8161 21.5604 17.4146 37.2814C8.01314 53.0024 6.71484 66.2979 6.71484 66.2979ZM80.4044 11.0049L80.5835 7.99544C80.1805 7.77086 79.0613 7.23185 76.2409 6.42334L76.0618 9.38787C77.5392 9.88196 78.9718 10.421 80.4044 11.0049Z" fill="#808080"/>
<path fill-rule="evenodd" clip-rule="evenodd" d="M76.1514 20.5271L75.9723 23.3568C77.4497 23.4018 78.927 23.5814 80.4044 23.8958L80.5835 21.111C79.0613 20.7966 77.584 20.6169 76.1514 20.5271ZM59.5869 6.5129H60.0346L59.1392 3.77295C57.7514 3.77295 56.3188 3.86278 54.8414 4.04245L55.692 6.69257C56.9903 6.55781 58.2886 6.5129 59.5869 6.5129ZM61.7358 23.0424L62.7655 26.1417C64.0638 25.5129 65.3621 24.9739 66.6604 24.5696L65.6755 21.6051C64.1533 22.0542 62.855 22.5483 61.7358 23.0424ZM41.4107 11.2292L39.3961 8.12992C38.2769 8.71384 37.1129 9.34268 35.9042 10.0614L37.9635 13.2056C39.1275 12.4869 40.2467 11.8131 41.4107 11.2292ZM50.5883 31.4419L52.7373 34.676C53.4983 33.553 54.3937 32.5199 55.3786 31.4868L53.364 28.4325C52.3343 29.3757 51.3942 30.4088 50.5883 31.4419ZM44.0969 45.9053L47.7231 48.78C47.9022 47.0282 48.2156 45.2764 48.6633 43.5246L45.4399 40.9644C44.8579 42.6263 44.455 44.2882 44.0969 45.9053ZM24.4881 24.5696L21.3095 21.7847C20.1455 22.9077 19.0263 24.0306 17.9966 25.1535L21.4438 28.1181C22.384 26.9053 23.4137 25.6925 24.4881 24.5696ZM10.9679 44.6476L5.8195 42.7611C4.96889 44.6925 4.02874 46.9384 3.58105 48.1511L8.72947 50.0376C9.31147 48.5105 10.2516 46.3095 10.9679 44.6476ZM43.4253 57.3142C43.5149 59.6948 43.7387 61.6263 43.9626 62.9738L49.3348 64.9052C48.9319 63.1535 48.529 61.1771 48.2604 59.066L43.4253 57.3142Z" fill="#808080"/>
</svg>
